X:87
T:Jimmy Lyons' Highland*
B:NFID.155b ("untitled highland")
087jimmy_L
S:CC
N:The source does not show the C in the triplet at the start
of measure 10 as natural, but I'm presuming this was a "scribal
error".
L:1/8 % dotted rhythm in part A
M:C
R:hornpipe
Q:280
K:A=G
cAA=G EAAB|cAAa a^gae|cAAG EAA=c|BA=GB d=ged:|
K:Am
cE (3cBc gedB|cBAb aged|cBcd e^fge|dBGB dged|
cE (3cBc gedB|(3cdc Bb a2ga|(3bag (3ag^f gage|dBGB dged||

%%%

